X:1
T:Title
%%score { ( 1 4 ) | ( 2 3 ) }
L:1/8
M:6/8
K:Ab
V:1 treble nm="Grand Piano"
V:4 treble 
V:2 bass 
V:3 bass 
V:1
 z3 z2[Q:1/4=90] [CE] | [Ec]2 [Ec] [Ec][EB][_GA] | [FA]2 [FA] [FB][FA]F | E2 A c2 [Ee] | %4
[M:5/8] B-B- B3 |[M:1/8] B |[M:3/4] c2 ce dc | [FB]2 [Fc][Fd] [Fc][FB] | AB c d2 G | %9
[M:5/8] [CEA]-[CEA]- [CEA]3 |[M:1/8] [CE] |[M:3/4] [CA]2 [CG] [CF]2 [A,C] | [CE]2 [CF] [CE]2 [CE] | %13
 [CA]2 [CG] [CF]2 C |[M:5/8][K:bass] D-D- D3 |[M:1/8] D |[M:3/4][K:treble] B2 =A B2 c | %17
 [CA]2 [DF] [CE]2 [A,E] | [A,=DF][EG] [FA][Ac] [GB][B,FA] |[M:5/8] G3 F2 |[M:1/8] E | %21
[M:3/4] A2 [CG] [CF]2 [A,C] | [CE]2 [CF] [CE]2 [CE] | [Ec]2 c d2 c |[M:5/8] [DF]-[DF]- [DF]3 | %25
[M:1/8] E |[M:3/4] [CA]2 [Ec] [Ee]2 [_Gc] | [FB]2 [FA] [FA]2 [FB] | [Ec]2 [Fd] [EGc]2 [DGB] | %29
[M:5/8] [CA]-[CA]- [CA]3 |] %30
V:2
 z3 z2 [A,,A,] | [A,,A,]2 [A,,A,] [A,,A,][B,,G,][C,A,] | [D,A,]2 [D,A,] [D,D][D,D][D,A,D] | %3
 [A,C]2 [A,C] [A,E]2 [C,A,] |[M:5/8] [E,G,E]-[E,G,E]- [E,G,E]3 |[M:1/8] [E,G,E] | %6
[M:3/4] [A,E]2 [A,E][A,CE] [A,B,E][A,E] | [D,A,]2 [C,=A,][D,B,] [D,C][D,D] | .C2 z2 z2 | %9
[M:5/8] A,,-A,,- A,,3 |[M:1/8] [A,,A,] |[M:3/4] [A,,A,]2 [A,,A,] [A,,A,]2 [A,,E,] | %12
 [A,,A,]2 [A,,A,] [A,,A,]2 [A,,E,] | [A,,E,]3 [A,,E,]3 |[M:5/8] B,-B,- B,3 |[M:1/8] [E,G,B,] | %16
[M:3/4] [E,G,D]2 [E,_G,C] [E,=G,D]2 [E,G,E] | [A,,A,]2 [A,,A,] [A,,A,]2 C, | %18
 z G, [B,,F,]B,- [C,B,]=D, |[M:5/8] B,3- [F,B,=D]2 |[M:1/8] [G,B,D] | %21
[M:3/4] [A,C]2 [A,,A,] [A,,A,]2 [A,,E,] | [A,,A,]2 [A,,A,] [A,,A,]2 [A,,A,] | z2 E F2 E | %24
[M:5/8] B,,D,F, B,,2 |[M:1/8] [E,G,D] |[M:3/4] [A,,A,]2 [A,,A,] [A,,C]2 [A,,A,] | %27
 [D,A,]2 [D,A,] [D,D]2 [D,A,] | [E,A,]2 [E,A,] E,2 E, |[M:5/8] A,,-A,,- A,,3 |] %30
V:3
 x6 | x6 | x6 | x6 |[M:5/8] x5 |[M:1/8] x |[M:3/4] x6 | x6 | %8
 [E,E]-[E,G,E] [E,A,E] [E,B,E]2 [E,DE] |[M:5/8] x5 |[M:1/8] x |[M:3/4] x6 | x6 | x6 | %14
[M:5/8] [B,,E,]2 B,, E,2 |[M:1/8] x |[M:3/4] x6 | x6 | B,,2 z B,, z2 |[M:5/8] [E,E]3 z2 | %20
[M:1/8] x |[M:3/4] x6 | x6 | [F,=A,]3 [F,A,]3 |[M:5/8] x5 |[M:1/8] x |[M:3/4] x6 | x6 | x6 | %29
[M:5/8] x5 |] %30
V:4
 x6 | x6 | x6 | x6 |[M:5/8] x5 |[M:1/8] x |[M:3/4] x6 | x6 | x6 |[M:5/8] x5 |[M:1/8] x | %11
[M:3/4] x6 | x6 | x6 |[M:5/8][K:bass] z2 F, G,2 |[M:1/8] x |[M:3/4][K:treble] x6 | x6 | x6 | %19
[M:5/8] x5 |[M:1/8] x |[M:3/4] x6 | x6 | x6 |[M:5/8] B,2 B, B,A, |[M:1/8] x |[M:3/4] x6 | x6 | x6 | %29
[M:5/8] x5 |] %30

